X:414
T:Beautiful Scrabmagg,The,by G.B. (p).1701.PLFD.414
M:6/4
L:1/4
Q:3/4=80
S:Playford, Dancing Master,11th Ed.,1701.
O:England
Z:Chris Partington.
K:F
A/G/|F>EDFAA,|D3f3|(e/f/)gfefd|^c3-c2(A/G/)|
F>EDFAA,|D3f3|(e/f/)gf(ea)A|d3-d2:|
|:f/e/|f>efgab|a3f2c/B/|ABcG>FE|F3-F2G/F/|
E>FGABc|=B>cd^cde|(fA)ff>ed|d3-d2:|
